portfolio/ecw/static/images/icons/icon-hand.svg

<?xml version="1.0" encoding="UTF-8"?>
<svg width="66px" height="62px" viewBox="0 0 66 62" version="1.1" xmlns="http://www.w3.org/2000/svg" xmlns:xlink="http://www.w3.org/1999/xlink">
    <!-- Generator: Sketch 54.1 (76490) - https://sketchapp.com -->
    <title>ico_zeitsparend</title>
    <desc>Created with Sketch.</desc>
    <defs>
        <polygon id="path-1" points="0 0.00100141774 65.9999208 0.00100141774 65.9999208 31.9834786 0 31.9834786"></polygon>
    </defs>
    <g id="Symbols" stroke="none" stroke-width="1" fill="none" fill-rule="evenodd">
        <g id="ico_zeitsparend">
            <g>
                <g id="Group-3" transform="translate(0.000000, 30.000000)">
                    <mask id="mask-2" fill="white">
                        <use xlink:href="#path-1"></use>
                    </mask>
                    <g id="Clip-2"></g>
                    <path d="M3.73777027,30.9810047 C3.85089189,31.6398104 4.46585135,32.0805308 5.11158108,31.9651185 L14.8027297,30.2357536 C15.4484595,30.1201896 15.8798378,29.4929289 15.7671622,28.8341232 L15.5779324,27.7305024 L17.8384324,25.8572133 C18.7239324,25.1048341 19.8625811,24.7340284 21.0111892,24.8222938 L36.8155135,26.0005308 C36.8416757,26.0029573 36.8678378,26.003564 36.8944459,26.0041706 L36.9919595,26.0041706 C40.4794054,25.996436 43.8745405,24.86309 46.6908378,22.7642844 C46.736027,22.7304645 46.7789865,22.6931564 46.8197162,22.6528152 L65.6435405,3.84834123 C66.0923108,3.40049289 66.1207027,2.67298578 65.7090946,2.18904265 C63.5368919,-0.369137441 59.7787568,-0.734028436 57.1727973,1.35840758 L48.5262027,7.95435071 C46.7284459,5.72208531 43.8931216,4.64925118 41.1037297,5.14456872 L32.265527,6.72151659 C30.8573784,6.9716019 29.4120676,6.89455924 28.0370676,6.49706161 L27.0488514,6.20906161 C21.9698243,4.72098578 16.4976216,5.87981043 12.4185541,9.30745024 L12.0469324,7.13630332 C11.9336622,6.47749763 11.3188514,6.03677725 10.6731216,6.15218957 L0.982418919,7.88216114 C0.336837838,7.99757346 -0.0952837838,8.62498578 0.0179864865,9.28379147 L3.73777027,30.9810047 Z M26.3997027,8.53975355 L27.3879189,8.82699526 C29.1071892,9.32398104 30.9137162,9.41998104 32.6747568,9.10847393 L41.5131081,7.53137441 C44.0447432,7.0823128 46.5432297,8.4851564 47.5269865,10.9076019 L34.2966622,13.2689289 C33.6886892,13.3761517 33.2635541,13.9401706 33.3170676,14.5663697 C33.3698378,15.1925687 33.8831216,15.6730237 34.4992703,15.6730237 C34.5683919,15.6730237 34.6369189,15.667109 34.7054459,15.654673 L49.2328784,13.062218 C49.8786081,12.946654 50.3099865,12.3192417 50.1973108,11.6605877 C50.1027703,11.1090047 49.9517432,10.5681896 49.7461622,10.0486066 L58.6059189,3.28963033 C58.6139459,3.283109 58.6221216,3.27658768 58.6302973,3.27006635 C59.9100135,2.23757346 61.6891892,2.14218009 63.0682027,3.03196209 L45.2199595,20.8667299 C42.8235946,22.6315829 39.9463514,23.5853649 36.9915135,23.5929479 L36.9467703,23.5929479 L21.183027,22.4122844 C19.4270405,22.2767014 17.688,22.8411754 16.3321757,23.9881706 L15.1093919,25.0000379 L12.9028514,12.1292133 C16.4216622,8.50836019 21.5952297,7.13205687 26.3997027,8.53975355 Z M9.91308108,8.74707109 L13.224527,28.0586919 L5.87162162,29.3708436 L2.56077027,10.0598294 L9.91308108,8.74707109 Z" id="Fill-1" fill="#CD171A" mask="url(#mask-2)"></path>
                </g>
                <path d="M35.9997049,33 C44.8365058,33 52,25.6132213 52,16.5003804 C52,7.38799611 44.8370961,0.000608679212 36.0002951,0 C27.1640844,0 20.0005902,7.38738743 20,16.4997717 C20.0098864,25.608504 27.1674782,32.9899568 35.9997049,33 Z M35.9997049,2.42999958 C43.5348974,2.42999958 49.6430574,8.73013377 49.6430574,16.5003804 C49.6430574,24.2710836 43.5348974,30.5707613 35.9997049,30.5701526 C28.4645123,30.5701526 22.3563524,24.2704749 22.3563524,16.4997717 C22.3650583,8.73317717 28.4684964,2.43882543 35.9997049,2.42999958 Z" id="Fill-4" fill="#CD171A"></path>
                <path d="M35.2364735,20 L41.8229397,20 C42.4730945,20 43,19.4275734 43,18.7220393 C43,18.0165051 42.4730945,17.4447185 41.8229397,17.4447185 L36.354268,17.4447185 L36.354268,9.27732078 C36.354268,8.57114669 35.8273625,8 35.1772077,8 C34.5269055,8 34,8.57114669 34,9.27732078 L34,18.6590052 C34.0235884,19.3882171 34.5633201,19.9750423 35.2364735,20 Z" id="Fill-5" fill="#CD171A"></path>
            </g>
        </g>
    </g>
</svg>

<svg width="66" height="62" xmlns="http://www.w3.org/2000/svg" xmlns:xlink="http://www.w3.org/1999/xlink"><defs><path id="a" d="M0 .001h66v31.982H0z"/></defs><g fill="none" fill-rule="evenodd"><g transform="translate(0 30)"><mask id="b" fill="#fff"><use xlink:href="#a"/></mask><path d="M3.738 30.981a1.19 1.19 0 0 0 1.374.984l9.69-1.73a1.21 1.21 0 0 0 .965-1.4l-.19-1.104 2.261-1.874a4.38 4.38 0 0 1 3.173-1.035l15.805 1.179.078.003h.098a16.284 16.284 0 0 0 9.699-3.24c.045-.034.088-.07.129-.111L65.644 3.848a1.229 1.229 0 0 0 .065-1.659 6.125 6.125 0 0 0-8.536-.83l-8.647 6.595c-1.798-2.232-4.633-3.305-7.422-2.81l-8.838 1.578a9.339 9.339 0 0 1-4.229-.225l-.988-.288c-5.08-1.488-10.551-.33-14.63 3.098l-.372-2.17a1.19 1.19 0 0 0-1.374-.985l-9.69 1.73a1.209 1.209 0 0 0-.965 1.402l3.72 21.697zM26.4 8.54l.988.287c1.72.497 3.526.593 5.287.281l8.838-1.577c2.532-.449 5.03.954 6.014 3.377l-13.23 2.36a1.206 1.206 0 0 0-.98 1.298 1.196 1.196 0 0 0 1.388 1.089l14.528-2.593a1.21 1.21 0 0 0 .964-1.401 8.104 8.104 0 0 0-.45-1.612l8.859-6.76.024-.019a3.781 3.781 0 0 1 4.438-.238L45.22 20.867a13.93 13.93 0 0 1-8.228 2.726h-.045l-15.764-1.18a6.706 6.706 0 0 0-4.85 1.575L15.108 25l-2.206-12.87c3.519-3.622 8.692-4.998 13.497-3.59zm-16.487.207l3.312 19.312-7.353 1.312L2.56 10.06l7.352-1.313z" fill="#CD171A" mask="url(#b)"/></g><path d="M36 33c8.837 0 16-7.387 16-16.5C52 7.388 44.837 0 36 0c-8.836 0-16 7.387-16 16.5.01 9.109 7.167 16.49 16 16.5zm0-30.57c7.535 0 13.643 6.3 13.643 14.07 0 7.771-6.108 14.07-13.643 14.07-7.535 0-13.644-6.3-13.644-14.07C22.366 8.733 28.468 2.439 36 2.43z" fill="#CD171A"/><path d="M35.236 20h6.587c.65 0 1.177-.572 1.177-1.278 0-.705-.527-1.277-1.177-1.277h-5.469V9.277c0-.706-.527-1.277-1.177-1.277S34 8.571 34 9.277v9.382c.024.73.563 1.316 1.236 1.341z" fill="#CD171A"/></g></svg>
